!!!SOCIAL_FUNCTION:	songs with legends of whaling
!!!PDT:	1939
!!!OTL: No_1_Song_Conserning_the_Whale_Which_Could_Not_Be_Eaten.krn
!!!LANG: Non-Tone
!!!LING_GROUP: Wakashan
!!!REG: Pacific Northwest
**kern	**kern
*staff2	*staff1
=1-	=1-
*clefF4	*clefF4
*k[b-e-a-d-g-]	*k[b-e-a-d-g-]
*M2/4	*M2/4
2r	{[2d-\
=2	=2
2r	2d-\]
=3	=3
2r	4c\}
.	4r
=4	=4
2r	{[2d-\
=5	=5
2r	(2d-\]
=6	=6
2r	2c\)
=7	=7
2r	[2B-\
=8	=8
2r	2B-\_
=9	=9
2r	4B-\]}
.	4r
=10	=10
2r	4c\
.	4r
=11	=11
2r	4c\
.	4r
=12	=12
2r	4c\
.	4r
=13	=13
2r	2r
=14	=14
2r	2r
=15	=15
2r	2r
=16||	=16||
*M3/4	*M3/4
4GG-/	{2c\
4GG-/	.
4r	4c\
=17	=17
4GG-/	2c\}
4GG-/	.
4r	4r
=18	=18
4GG-/	{2c\
4GG-/	.
4r	4c\
=19	=19
4GG-/	4c\}
4GG-/	4r
4r	{4Bn\
=20	=20
4GG-/	2c\
4GG-/	.
4r	4c\
=21	=21
4GG-/	4c\}
4GG-/	4r
4r	{4Bn\
=22	=22
4GG-/	2c\
4GG-/	.
4r	4d-\
=23	=23
4GG-/	2c\}
4GG-/	.
4r	4r
=24	=24
4GG-/	{2c\
4GG-/	.
4r	4c\
=25	=25
4GG-/	2c\}
4GG-/	.
4r	4r
=26	=26
4GG-/	{2c\
4GG-/	.
4r	4c\
=27	=27
4GG-/	4c\}
4GG-/	4r
4r	{4Bn\
=28	=28
4GG-/	2c\
4GG-/	.
4r	4d-\
=29	=29
4GG-/	4c\}
4GG-/	4r
4r	{4Bn\
=30	=30
4GG-/	2c\
4GG-/	.
4r	4d-\
=31	=31
4GG-/	2c\}
4GG-/	.
4r	4r
=32||	=32||
*M2/4	*M2/4
4r	[2d-\
4r	.
=33	=33
2r	{2d-\]
=34	=34
2r	[2c\
=35	=35
2r	4.c\]
.	8B-\
=36	=36
2r	4B-\}
.	4r
=37	=37
2r	{4c\
.	4r
=38	=38
2r	4c\
.	4r
=39	=39
2r	4c\
.	4r}
==	==
*-	*-
